X:1
T:Meet Me There
T:Meet Me There
T:Benjamin Franklin Roe, Sr.
T:Jenie Wilson, 1904
T:Public Domain Courtesy of the Cyber Hymnal™
T:Public Domain Courtesy of the Cyber Hymnal™
C:Benjamin Franklin Roe, Sr.
Z:Public Domain
Z:Courtesy of the Cyber Hymnal™
%%score ( 1 2 ) ( 3 4 )
L:1/8
Q:1/4=104
M:4/4
K:Eb
V:1 treble 
V:2 treble 
V:3 bass 
V:4 bass 
V:1
 [EG]>[FA] | [GB]3 [Ac] [GB]2 [EG]2 | [DF]2 E4 [EB]>[F=B] | [Ec]3 [Ee] [Fd]2 [Ec]2 | %4
w: 1.~Dear- est|friend- ships here are|brok- en, But there|is a ci- ty|
w: 2.~Where the|stream of life is|flow- ing May we|wan- der free and|
w: 3.~Where no|storm clouds throw their|sha- dows On the|glor- ious sum- mer|
w: 4.~Where re-|demp- tion’s song is|peal- ing Forth in|grand- eur let us|
 [DB]6 [FB]>[FB] | [Ee]3 [Fd] [Ge]2 B2 | [Ac]2 [Ae]4 [^Fe]>[Fc] | [GB] [Ge]3 [EG]2 [DF]2 | E6 || %9
w: fair Where no|part- ing word is|spo- ken; Some glad|morn- ing, meet me|there.|
w: blest; Where the|heal- ing trees are|grow- ing, Af- ter|toil- ing may we|rest.|
w: hours, Stray- ing|thro’ ce- les- tial|mea- dows, May we|ga- ther death- less|flowers.|
w: meet, And in|grate- ful wor- ship|kneel- ing, Cast our|crowns at Je- sus’|feet.|
"^Refrain" [EG]>[FA] | [GB]4- [GB]3 [Ge]<[Af][Ae]/ | [Ac]6 [Ad]>[Ac] | [GB]3 [Ge] [EB]2 [EG]2 | %13
w: ||||
w: Meet me|there, * O meet me|there, Hea- ven’s|un- told bliss to|
w: ||||
w: ||||
 [DF]6 [EG]>[FA] | [GB]2 [Ac]2 [GB]2 [Ge]>[Bd] | [Ac]2 [Ad]2 !fermata![Ae]2 [^Fe]>[Fc] | %16
w: |||
w: share; In the|home on high there’s no|sad good- bye, Some glad|
w: |||
w: |||
 [GB] [Ge]3 [EG]2 [DF]2 | !fermata!E6 |] %18
w: ||
w: morn- ing, meet me|there.|
w: ||
w: ||
V:2
 x2 | x8 | x2 E4 x2 | x8 | x8 | x6 B2 | x8 | x8 | E6 || x2 | x19/2 | x8 | x8 | x8 | x8 | x8 | x8 | %17
 (E>B,C>_C B,2) |] %18
V:3
 [E,B,]>[E,B,] | [E,E]3 [E,E] [E,E]2 [E,B,]2 | [B,,A,]2 [E,G,]4 [E,G,]>[E,G,] | %3
w: ~ ~|~ ~ ~ ~|~ ~ ~ ~|
 [C,G,]3 [C,C] [F,B,]2 [F,=A,]2 | [B,,B,]6 [A,D]>[A,D] | [G,E]3 [F,B,] [E,B,]2 [G,E]2 | %6
w: ~ ~ ~ ~|~ ~ ~|~ ~ ~ ~|
 [A,E]2 [A,C]4 [=A,C]>[A,E] | [B,E] B,3 [B,,B,]2 [B,,A,]2 | [E,G,]6 || z2 | %10
w: ~ ~ ~ ~|~ ~ ~ ~|~||
 z3/2 [E,E]>[E,E][E,E]3/2 z/ z4 | z3/2 [A,E]/ [A,E]>[A,E] [A,E]2 [A,E]>[A,E] | %12
w: Meet me there,|O meet me there ~ ~|
 [E,E]3 [E,B,] [G,B,]2 [E,B,]2 | B,6 [G,E]>[F,D] | [E,E]2 [E,E]2 [E,E]2 [E,B,]>[G,E] | %15
w: ~ ~ ~ ~|~ ~ bliss|to share; ~ ~ ~|
 [A,E]2 [A,D]2 !fermata![A,C]2 [=A,C]>[A,E] | [B,E] B,3 [B,,B,]2 [B,,A,]2 | %17
w: ~ ~ ~ ~ ~|~ ~ ~ ~|
 !fermata!G,3/2G,3/4A,A,3/4 !fermata!G,2 |] %18
w: ~ ~ ~ ~ ~|
V:4
 x2 | x8 | x8 | x8 | x8 | x8 | x8 | x B,3 x4 | x6 || x2 | x19/2 | x8 | x8 | B,,2 B,>B,B,A, x2 | %14
 x8 | x8 | x B,3 x4 | E,4 x2 |] %18

